X: 784
T: Under and over
P: Longways for as many as will
%R: jig
B: "The Dancing-Master: Containing Directions and Tunes for Dancing" printed by W. Pearson for John Walsh, London ca. 1709
S: 7: DMDfD http://digital.nls.uk/special-collections-of-printed-music/pageturner.cfm?id=89751228 p.66
Z: 2013 John Chambers <jc:trillian.mit.edu>
N: The dance has 3 sections, each in 2 columns; ## and indentation used here to mark the 2nd columns.
M: 6/4
L: 1/4
K: Gm
% - - - - - - - - - - - - - - - - - - - - - - - - -
[|\
G2g f2e | d3 c>BA | B>cd cdB | A3 ^F3 |\
G2g ^f2g | a3 d2d | e>^fg ga^f | g3- g3 |]
[|\
f2f f>ed | c2c c>BA | B>cd cdB | A3 ^F3 |\
G2g ^f2g | a3 d2d | e>^fg ga^f | g3- g3 |]
% - - - - - - - - - - - - - - - - - - - - - - - - -
%%begintext align
%% Lead up all a D. forward and back, set and turn S :| That again :|
%% ##
%%   First cu. meet and back, turn once and an half by both
%%   hands .| Set each to the 2. and go back, turn by both
%%   hands :| Do this to the last, the rest following.
%%endtext
%%sep 1 1 300
%%begintext align
%% Sides all, set and turn S. That again :|
%% ##
%%   The 1. and 2. on each side hands and go back, meet &
%%   cross over, take hands behind you, go half round into
%%   each others places .| Do thus to the last.
%%endtext
%%sep 1 1 300
%%begintext align
%% Arms all, set and turn S. That again :|
%% ##
%%   First cu. meet, fall back, and fall to the 2. place, cross
%%   over between the 2. cu.  Do thus to the last, the rest
%%   following.
%% [DMDfD]
%%endtext
%%sep 1 8 500

%%sep 1 1 500
%%sep 1 1 500
